static/assets/images/exchanges/digifinex.svg

<svg width="267" height="256" viewBox="0 0 267 256" fill="none" xmlns="http://www.w3.org/2000/svg">
<path fill-rule="evenodd" clip-rule="evenodd" d="M188.415 64C191.908 66.1547 197.506 71.9147 201.704 82.6987L261.843 69.7493C253.447 38.8267 231.079 16.7147 201.704 5.38667C192.613 1.87733 176.526 0 162.533 0H61.1493C59.0556 0 56.9619 1.44 56.9619 3.59467L50.6595 50.336C50.6595 52.4907 52.0589 54.656 54.8576 54.656H154.841C168.835 55.3707 180.03 58.2507 188.415 64ZM138.776 255.285C174.443 255.285 206.607 245.931 231.068 217.173C249.954 194.88 262.538 159.637 266.042 125.12L201.009 139.509C191.919 179.776 173.738 199.915 135.977 199.915H91.2299L83.5388 256L138.776 255.285Z" fill="white"/>
<path fill-rule="evenodd" clip-rule="evenodd" d="M91.9238 194.88C93.3125 186.965 96.1218 166.112 96.8162 158.197C96.8162 156.043 98.9205 154.603 101.014 154.603H135.977C138.07 154.603 139.47 153.163 140.175 151.008L146.466 103.541C146.466 101.387 145.067 99.2319 142.268 99.2319H47.1767C45.0724 99.2319 43.673 100.672 42.9787 102.827L31.0896 192C30.3846 197.76 28.2909 202.784 25.4922 207.819L1.03032 248.811C-0.379704 251.691 1.03032 255.285 4.51267 255.285H84.2327L91.9238 194.88Z" fill="#01B5AB"/>
</svg>

<svg xmlns="http://www.w3.org/2000/svg" fill="none" viewBox="0 0 267 256"><path fill="#fff" fill-rule="evenodd" d="M188.415 64c3.493 2.155 9.091 7.915 13.289 18.699l60.139-12.95c-8.396-30.922-30.764-53.034-60.139-64.362C192.613 1.877 176.526 0 162.533 0H61.149c-2.093 0-4.187 1.44-4.187 3.595l-6.303 46.741c0 2.155 1.4 4.32 4.199 4.32h99.983c13.994.715 25.189 3.595 33.574 9.344m-49.639 191.285c35.667 0 67.831-9.354 92.292-38.112 18.886-22.293 31.47-57.536 34.974-92.053l-65.033 14.389c-9.09 40.267-27.271 60.406-65.032 60.406H91.23L83.539 256z" clip-rule="evenodd"/><path fill="#01B5AB" fill-rule="evenodd" d="M91.924 194.88c1.388-7.915 4.198-28.768 4.892-36.683 0-2.154 2.105-3.594 4.198-3.594h34.963c2.093 0 3.493-1.44 4.198-3.595l6.291-47.467c0-2.154-1.399-4.31-4.198-4.31H47.177c-2.105 0-3.504 1.441-4.198 3.596L31.089 192c-.704 5.76-2.798 10.784-5.597 15.819L1.03 248.811c-1.41 2.88 0 6.474 3.483 6.474h79.72z" clip-rule="evenodd"/></svg>
